assets/img/braze_icons/corner-up-right.svg

<svg fill="none" height="24" viewBox="0 0 24 24" width="24" xmlns="http://www.w3.org/2000/svg"><path d="m15.7071 3.29289c-.3905-.39052-1.0237-.39052-1.4142 0-.3905.39053-.3905 1.02369 0 1.41422l3.2929 3.29289h-4.0302c-1.6426-.00001-2.9365-.00001-3.97782.08507-1.06235.08679-1.94951.2671-2.75571.67788-1.31714.67112-2.388 1.74195-3.05912 3.05915-.41078.8062-.59109 1.6933-.67788 2.7557-.08508 1.0413-.08508 2.3352-.08507 3.9778v1.4444c0 .5523.44772 1 1 1 .55229 0 1-.4477 1-1v-1.4c0-1.6967.00078-2.909.07842-3.8594.0767-.9386.22337-1.5333.46655-2.0106.47936-.9408 1.24427-1.7057 2.18508-2.185.47727-.2432 1.07192-.3899 2.01059-.4666.95036-.0776 2.16266-.0784 3.85936-.0784h3.9858l-3.2929 3.2929c-.3905.3905-.3905 1.0237 0 1.4142s1.0237.3905 1.4142 0l5-4.99999c.3905-.39053.3905-1.02369 0-1.41422z" fill="#801ed7"/></svg>

<svg width="24" height="24" viewBox="0 0 24 24" fill="none" xmlns="http://www.w3.org/2000/svg">
<path d="M15.7071 3.29289C15.3166 2.90237 14.6834 2.90237 14.2929 3.29289C13.9024 3.68342 13.9024 4.31658 14.2929 4.70711L17.5858 8L13.5556 8C11.913 7.99999 10.6191 7.99999 9.57778 8.08507C8.51543 8.17186 7.62827 8.35217 6.82207 8.76295C5.50493 9.43407 4.43407 10.5049 3.76295 11.8221C3.35217 12.6283 3.17186 13.5154 3.08507 14.5778C2.99999 15.6191 2.99999 16.913 3 18.5556V20C3 20.5523 3.44772 21 4 21C4.55229 21 5 20.5523 5 20V18.6C5 16.9033 5.00078 15.691 5.07842 14.7406C5.15512 13.802 5.30179 13.2073 5.54497 12.73C6.02433 11.7892 6.78924 11.0243 7.73005 10.545C8.20732 10.3018 8.80197 10.1551 9.74064 10.0784C10.691 10.0008 11.9033 10 13.6 10H17.5858L14.2929 13.2929C13.9024 13.6834 13.9024 14.3166 14.2929 14.7071C14.6834 15.0976 15.3166 15.0976 15.7071 14.7071L20.7071 9.70711C21.0976 9.31658 21.0976 8.68342 20.7071 8.29289L15.7071 3.29289Z" fill="#801ED7"/>
</svg>
